src/apps/symbolic/preferences-desktop-display-symbolic.svg

<svg width="16" height="16" version="1.1" xmlns="http://www.w3.org/2000/svg">
 <path d="m6.5 3 1.5 2h-1v3h5v-1l2 1.5-2 1.5v-1h-5v2h1l-1.5 2-1.5-2h1v-2h-2v1l-2-1.5 2-1.5v1h2v-3h-1z" color="#000000" fill="#363636" overflow="visible"/>
 <path d="m3 1c-1.662 0-3 1.338-3 3v8c0 1.662 1.338 3 3 3h10c1.662 0 3-1.338 3-3v-8c0-1.662-1.338-3-3-3h-10zm0 1h10c1.108 0 2 0.892 2 2v8c0 1.108-0.892 2-2 2h-10c-1.108 0-2-0.892-2-2v-8c0-1.108 0.892-2 2-2z" fill="#363636" stroke-linecap="round" stroke-linejoin="round" stroke-width="1.0016"/>
</svg>

<svg xmlns="http://www.w3.org/2000/svg" width="16" height="16">
    <path fill="#050505" d="M6.5 3 8 5H7v3h5V7l2 1.5-2 1.5V9H7v2h1l-1.5 2L5 11h1V9H4v1L2 8.5 4 7v1h2V5H5z" color="#000" opacity=".7" overflow="visible"/>
    <path fill="#050505" fill-opacity=".7" d="M3 1C1.338 1 0 2.338 0 4v8c0 1.662 1.338 3 3 3h10c1.662 0 3-1.338 3-3V4c0-1.662-1.338-3-3-3H3zm0 1h10c1.108 0 2 .892 2 2v8c0 1.108-.892 2-2 2H3c-1.108 0-2-.892-2-2V4c0-1.108.892-2 2-2z"/>
</svg>
